cdn/fa/svgs/sharp-regular/arrow-up-from-bracket.svg

<svg xmlns="http://www.w3.org/2000/svg" viewBox="0 0 448 512"><!--! Font Awesome Pro 6.5.1 by @fontawesome - https://fontawesome.com License - https://fontawesome.com/license (Commercial License) Copyright 2023 Fonticons, Inc. --><path d="M241 18.2l-17-17-17 17L79 146.2l-17 17L96 197.1l17-17 87-87V328v24h48V328 93.1l87 87 17 17 33.9-33.9-17-17L241 18.2zM48 344V320H0v24V488v24H24 424h24V488 344 320H400v24V464H48V344z"/></svg>

<svg xmlns="http://www.w3.org/2000/svg" viewBox="0 0 448 512"><!--! Font Awesome Pro 6.5.2 by @fontawesome - https://fontawesome.com License - https://fontawesome.com/license (Commercial License) Copyright 2024 Fonticons, Inc. --><path d="M241 18.2l-17-17-17 17L79 146.2l-17 17L96 197.1l17-17 87-87L200 328l0 24 48 0 0-24 0-234.9 87 87 17 17 33.9-33.9-17-17L241 18.2zM48 344l0-24L0 320l0 24L0 488l0 24 24 0 400 0 24 0 0-24 0-144 0-24-48 0 0 24 0 120L48 464l0-120z"/></svg>
